icons/weather/Cloudy.svg

<?xml version="1.0" encoding="UTF-8" standalone="no"?>
<svg width="110px" height="71px" viewBox="0 0 110 71" version="1.1" xmlns="http://www.w3.org/2000/svg" xmlns:xlink="http://www.w3.org/1999/xlink">
    <!-- Generator: Sketch 3.7.2 (28276) - http://www.bohemiancoding.com/sketch -->
    <title>Cloudy</title>
    <desc>Created with Sketch.</desc>
    <defs>
        <linearGradient x1="25.9379725%" y1="20.0204164%" x2="90.765184%" y2="100%" id="linearGradient-1">
            <stop stop-color="#D0D0D0" offset="0%"></stop>
            <stop stop-color="#A3A3A3" offset="100%"></stop>
        </linearGradient>
        <linearGradient x1="14.0338083%" y1="65.5126707%" x2="58.0484484%" y2="32.5280542%" id="linearGradient-2">
            <stop stop-color="#F2F2F2" offset="0%"></stop>
            <stop stop-color="#E0E0E0" offset="100%"></stop>
        </linearGradient>
        <path d="M54.2808043,48.7679979 L93.0973541,48.7679979 C93.0996884,48.7679988 93.1020228,48.7679993 93.1043573,48.7679993 C93.1066918,48.7679993 93.1090262,48.7679988 93.1113605,48.7679979 L93.4370515,48.7679979 C93.4958105,48.7679979 93.554553,48.7655428 93.6131518,48.7607325 C102.208301,48.5148847 109.093577,42.0619805 109.093577,34.1375995 C109.093577,26.0574528 101.93496,19.5071997 93.1043573,19.5071997 C92.32863,19.5071997 91.5658051,19.5577467 90.8196018,19.6554375 C90.819989,19.6060683 90.820183,19.5566555 90.820183,19.5071997 C90.820183,8.7336708 81.616246,0 70.2626144,0 C60.5263559,0 52.37095,6.42260785 50.2449854,15.0465311 C42.0910372,16.7601711 36,23.565257 36,31.6991995 C36,40.741706 43.5277762,48.1419083 53.0489837,48.7302891 C53.1860096,48.7550225 53.3237184,48.7679979 53.4604203,48.7679979 L54.2659844,48.7679979 C54.2684542,48.7679988 54.2709242,48.7679993 54.2733943,48.7679993 C54.2758644,48.7679993 54.2783344,48.7679988 54.2808043,48.7679979 Z" id="path-3"></path>
        <mask id="mask-4" maskContentUnits="userSpaceOnUse" maskUnits="objectBoundingBox" x="0" y="0" width="73.0935773" height="48.7679993" fill="white">
            <use xlink:href="#path-3"></use>
        </mask>
    </defs>
    <g id="Symbols-(original)" stroke="none" stroke-width="1" fill="none" fill-rule="evenodd">
        <g id="Cloudy" transform="translate(-10.000000, -25.000000)">
            <g>
                <rect id="Container-Copy" x="0" y="0" width="128" height="128"></rect>
                <g id="Cloud-pair" transform="translate(10.000000, 25.000000)">
                    <path d="M24.8067759,70.1861909 L76.6281752,70.1861909 C76.917365,70.1966646 77.2080094,70.2019509 77.5000008,70.2019509 C89.4845798,70.2019509 99.2,61.2964216 99.2,50.3303343 C99.2,39.3642469 89.4845791,30.4744767 77.5,30.4744767 C76.4472105,30.4744767 75.4119317,30.5430773 74.3992113,30.6756598 C74.3997368,30.6086577 74.4,30.5415964 74.4,30.4744767 C74.4,15.853027 61.9087445,4 46.5,4 C33.2862968,4 22.2180703,12.7165346 19.3327869,24.4206162 C8.2665387,26.7463073 0,35.9819275 0,47.0210247 C0,59.6621448 10.9155119,69.9383545 24.3135626,70.1817759 C24.3604773,70.1847031 24.407269,70.1861909 24.453868,70.1861909 L24.7932262,70.1861909 C24.7954841,70.1861915 24.797742,70.1861918 24.8,70.1861918 C24.802258,70.1861918 24.8045159,70.1861915 24.8067738,70.1861909 Z" id="Rectangle-76-Copy-2" fill="url(#linearGradient-1)"></path>
                    <use id="Small-grey-cloud" stroke-opacity="0.32" stroke="#979797" mask="url(#mask-4)" stroke-width="0.2" fill="url(#linearGradient-2)" xlink:href="#path-3"></use>
                </g>
            </g>
        </g>
    </g>
</svg>

<svg width="110" height="71" viewBox="0 0 110 71" xmlns="http://www.w3.org/2000/svg" xmlns:xlink="http://www.w3.org/1999/xlink"><title>Cloudy</title><defs><linearGradient x1="25.938%" y1="20.02%" x2="90.765%" y2="100%" id="b"><stop stop-color="#D0D0D0" offset="0%"/><stop stop-color="#A3A3A3" offset="100%"/></linearGradient><linearGradient x1="14.034%" y1="65.513%" x2="58.048%" y2="32.528%" id="d"><stop stop-color="#F2F2F2" offset="0%"/><stop stop-color="#E0E0E0" offset="100%"/></linearGradient><path d="M54.28 48.768h38.817a18.164 18.164 0 0 0 .014 0h.326c.059 0 .118-.002.176-.007 8.595-.246 15.48-6.699 15.48-14.623 0-8.08-7.158-14.63-15.989-14.63-.775 0-1.538.05-2.284.147v-.148C90.82 8.734 81.616 0 70.263 0 60.526 0 52.37 6.423 50.245 15.047 42.091 16.76 36 23.565 36 31.699c0 9.043 7.528 16.443 17.049 17.031.137.025.275.038.411.038h.806a20.335 20.335 0 0 0 .015 0z" id="a"/><mask id="c" x="0" y="0" width="73.094" height="48.768" fill="#fff"><use xlink:href="#a"/></mask></defs><g fill="none" fill-rule="evenodd"><path d="M-10-25h128v128H-10z"/><g><path d="M24.807 70.186h51.821c.29.01.58.016.872.016 11.985 0 21.7-8.906 21.7-19.872s-9.715-19.856-21.7-19.856c-1.053 0-2.088.07-3.1.202v-.202C74.4 15.853 61.909 4 46.5 4c-13.214 0-24.282 8.717-27.167 20.42C8.267 26.747 0 35.983 0 47.022c0 12.641 10.916 22.917 24.314 23.16.046.004.093.005.14.005h.34a25.49 25.49 0 0 0 .013 0z" fill="url(#b)"/><use stroke-opacity=".32" stroke="#979797" mask="url(#c)" stroke-width=".2" fill="url(#d)" xlink:href="#a"/></g></g></svg>
